X: 18
T: Josefins Dopvals
T: Josefin's Baptism waltz
C: Roger Tallroth \251 1993
%D:1993
M: 3/4
L: 1/8
K: G
z2 "D7"D2 |\
"G"D2 G2 A2 | B2 d2 c2 | B2 A2 G2 | D4 E2 | "C"C3 C C2 | E2 G2 F2 | "Am"E6 | "D"D6 |
"G"D2 G2 A2 | B2 d2 c2 | B2 A2 G2 | D4 E2 | "C"C3 C C2 | E2 F2 G2 | "D"A6- | A2 :|
|: B2 c2 |\
"G"d2 B2 d2 | g4 f2 | "C"e6 | "G/B"d6 | "Am"c2 e2 d2 | "(C)"c2 G2 A2 | "G"B3 c B2 | "D"A2 B2 c2 |
"G"d2 B2 d2 | g4 f2 | "C"e6 | "G/B"d6 | "Am"c2 e2 d2 | "D7"c2 B2 A2 | "G"B3 c B2 | "D/F#"A2 B2 c2 |
"Em"B2 A2 G2 | "D"F4 G2 | "C"G6 | C2 D2 C2 "^I"| "G"B,2 D2 G2 | "D7"F2 E2 F2 | "G"G6- | G2 :|


